X:1
T: The Braes of Tulliemet
T: 8x32S3C
P: The Braes of Tulliemet
R: strathspey
C: RSCDS Book 7
C: Arr. T. Traub 9-21-1995
M: 4/4
L: 1/8
%
K: Am
R: strathspey
|:e|"Am"A<e e>d e>d e<g|"G"B<G d>G e>G d>B|"Am"A<e e>d e>d e<a|"G"g>e d>B "Am"A/A/A A2 :|
"Am"a>e a<c' a>e a<c'|"G"g>d g<b g>d g<b|"Am"a>e a<c' a>e a<c'|"G"g>e d>B "Am"A/A/A A2|
"Am"a>e a<c' (3eab (3 c'ba|"G"g>d g<b (3 dga (3 bag|"Am"a<e e>^f "G"g>a b>a|"Em"g>e d>B "Am"A/A/A A2 |]
